packages/katcn/src/icons/svg/videoOff-solid.svg

<svg width="24" height="25" viewBox="0 0 24 25" fill="none" xmlns="http://www.w3.org/2000/svg">
<path d="M13.9 11.608C14.1 11.808 14.3 11.908 14.6 11.908C14.7 11.908 14.9 11.908 15 11.808C15.4 11.608 15.6 11.308 15.6 10.908V9.208C15.6 7.208 14 5.608 12 5.608H10.3C9.90001 5.608 9.50001 5.808 9.40001 6.208C9.20001 6.608 9.30001 7.008 9.60001 7.308L13.9 11.608Z" fill="black"/>
<path d="M15.3 14.608L9.7 9.10801L3.2 2.50801C2.8 2.10801 2.2 2.10801 1.8 2.50801C1.4 2.90801 1.4 3.50801 1.8 3.90801L3.6 5.70801C2.1 6.20801 1 7.50801 1 9.20801V16.408C1 18.408 2.6 20.008 4.6 20.008H12C13.6 20.008 14.9 19.008 15.4 17.608L19.8 22.008C20 22.208 20.3 22.308 20.5 22.308C20.7 22.308 21 22.208 21.2 22.008C21.6 21.608 21.6 21.008 21.2 20.608L15.3 14.608Z" fill="black"/>
<path d="M22 6.80801C21.3 6.40801 20.4 6.30801 19.7 6.70801C19.7 6.70801 19.6 6.70801 19.6 6.80801L17 8.60801C16.7 8.80801 16.6 9.10801 16.6 9.40801V12.808C16.6 13.408 16.8 14.008 17.3 14.408L20.3 17.408C20.6 17.708 21.2 17.908 21.6 17.708C21.9 17.608 22.2 17.508 22.4 17.308C22.8 16.908 23 16.408 23 15.808V8.50801C23 7.80801 22.6 7.20801 22 6.80801Z" fill="black"/>
</svg>

<svg xmlns="http://www.w3.org/2000/svg" fill="none" viewBox="0 0 24 25"><path fill="#000" d="M13.9 11.608c.2.2.4.3.7.3.1 0 .3 0 .4-.1q.6-.3.6-.9v-1.7c0-2-1.6-3.6-3.6-3.6h-1.7c-.4 0-.8.2-.9.6-.2.4-.1.8.2 1.1zm1.4 3-5.6-5.5-6.5-6.6c-.4-.4-1-.4-1.4 0s-.4 1 0 1.4l1.8 1.8c-1.5.5-2.6 1.8-2.6 3.5v7.2c0 2 1.6 3.6 3.6 3.6H12c1.6 0 2.9-1 3.4-2.4l4.4 4.4c.2.2.5.3.7.3s.5-.1.7-.3c.4-.4.4-1 0-1.4zm6.7-7.8c-.7-.4-1.6-.5-2.3-.1 0 0-.1 0-.1.1l-2.6 1.8c-.3.2-.4.5-.4.8v3.4c0 .6.2 1.2.7 1.6l3 3c.3.3.9.5 1.3.3.3-.1.6-.2.8-.4q.6-.6.6-1.5v-7.3c0-.7-.4-1.3-1-1.7"/></svg>
